X:1
T:Chandler, 66.66.88.8
T:William Henry Harper (1845-1933)
T:Chandler, 66.66.88.8
T:Public Domain
C:William Henry Harper (1845-1933)
Z:Public Domain
%%score ( 1 2 ) ( 3 4 )
L:1/8
M:4/4
K:A
V:1 treble 
V:2 treble 
V:3 bass 
V:4 bass 
V:1
 E2 | E3 [EF] [EG]2 [EA]2 | (A4 G2) E2 | E3 [EF] [EG]2 [EA]2 | (c4 B2) E2 | E3 [EA] [Ec]2 [Ae]2 | %6
 (e4 d2) [Ac]2 | [AB]3 [AB] [Af]2 [FA]2 | (A4 G2) [B,F]>[B,E] | [Ee]4 [Ee]2 [^DA]2 | %10
 [EB]3 [Ec] [EB]2 E>E | [Ee]4 [Ee]2 [^DA]2 | [Ec]3 [EB] [EB]2 A2 | [Af]4 [Ae]4 | %14
 (F2 z2) c2 [FB]>[FA] | E4 G4 | A6 |] %17
V:2
 E2 | E3 x5 | E6 E2 | E3 x5 | E6 E2 | E3 x5 | A6 x2 | x8 | E6 x2 | x8 | x6 E>E | x8 | x6 A2 | x8 | %14
 d4 E4 | e8 | A6 |] %17
V:3
 [A,C]2 | [A,C]3 [A,C] [A,C]2 [E,C]2 | [B,D]6 [E,D]2 | [A,C]3 [A,C] [A,C]2 [E,C]2 | %4
 [G,D]6 [D,G,]2 | [C,A,]3 [C,A,] [A,,A,]2 [A,,C]2 | [D,F]6 [E,E]2 | [F,^D]3 [F,D] [B,,D]2 [B,,D]2 | %8
 (E2 B,4) [D,G,]>[D,G,] | [C,A,]4 [C,A,]2 [F,A,]2 | [E,G,]3 [E,A,] [E,G,]2 [E,G,]>[D,G,] | %11
 [C,A,]4 [C,A,]2 [F,A,]2 | [E,A,]3 [E,G,] [E,G,]2 [C,A,]2 | [D,A,]4 [E,C]4 | %14
 ([F,A,]2 [G,B,]2 [A,C]2) [D,D]>[D,D] | (C4 D4) | [A,,C]6 |] %17
V:4
 x2 | x8 | x8 | x8 | x8 | x8 | x8 | x8 | E,6 x2 | x8 | x8 | x8 | x8 | x8 | x8 | E,8 | x6 |] %17

